X: 1
T: Dark Side Of The Moor, The
M: 4/4
L: 1/8
R: reel
K: Edor
BEED EFGA|BGdB ADFA|BEEF ~G3B|AFEF DEFA|
BEED EFGA|BGdB A2GA|BEEF ~G3B|1FDAF E2GA:|2~F3B E2GA||
Bege Adfd|GBeB FAdA|BEEF GABG|AFdB A2GB|
Bege Adfd|GBeB FAdA|BEEF ~G3B|1FDAF E2GA:|2~F3B E2GA||
